uiw/question-circle.svg

<svg xmlns="http://www.w3.org/2000/svg" viewBox="0 0 20 20" height="1em" width="1em">
  <path fill="#555" d="M10,0 C15.5228475,0 20,4.4771525 20,10 C20,15.5228475 15.5228475,20 10,20 C4.4771525,20 0,15.5228475 0,10 C0,4.4771525 4.4771525,0 10,0 Z M10,13.6363636 C9.49792295,13.6363636 9.09090909,14.0433775 9.09090909,14.5454545 C9.09090909,15.0475316 9.49792295,15.4545455 10,15.4545455 C10.502077,15.4545455 10.9090909,15.0475316 10.9090909,14.5454545 C10.9090909,14.0433775 10.502077,13.6363636 10,13.6363636 Z M12.6801979,5.33016096 C11.9391065,4.58484308 10.8373198,4.24743872 9.9123937,4.36727511 C8.91042626,4.49709321 8.3589631,4.69740744 7.60030927,5.36381652 C6.96726099,5.91989245 6.57119854,6.70109882 6.4059238,7.67985493 C6.34322511,8.05115621 6.59339695,8.40298269 6.96469822,8.46568138 C7.3359995,8.52838006 7.68782599,8.27820823 7.75052467,7.90690695 C7.86638561,7.22077912 8.11835911,6.72377845 8.50024708,6.38832425 C9.0225055,5.92956724 9.33045563,5.81770702 10.0876063,5.71960816 C10.6068382,5.65233482 11.2836057,5.85958395 11.7132235,6.29165187 C12.1198944,6.70064197 12.2335546,7.10584059 12.1678493,7.57735669 C12.1194723,7.92452154 11.8743142,8.36132074 11.5614212,8.6428146 C11.4495688,8.73934587 10.9980656,9.13046524 10.8827282,9.23330342 C10.6339865,9.45508882 10.438323,9.64234536 10.2681609,9.82607732 C9.89656683,10.2273047 9.63806044,10.6797153 9.4485874,11.2052753 C9.33457799,11.5215143 9.25165092,11.9222726 9.19398705,12.4146851 C9.15018961,12.7886872 9.41787335,13.1273806 9.79187542,13.171178 C10.1658775,13.2149755 10.5045709,12.9472917 10.5483684,12.5732897 C10.5948901,12.1760239 10.6578418,11.8717997 10.7314044,11.667752 C10.8624832,11.3041657 11.0309996,11.0092461 11.2686352,10.7526599 C11.3084508,10.7096692 11.3404787,10.6748705 11.3706888,10.6428384 L11.430454,10.5808555 C11.5623589,10.4475859 11.7348621,10.2983491 12.4337304,9.69167742 C12.9989132,9.20105503 13.4220434,8.4572938 13.5184358,7.76555944 C13.6399501,6.89354474 13.4062304,6.06033413 12.6801979,5.33016096 Z"/>
</svg>

<svg xmlns="http://www.w3.org/2000/svg" viewBox="0 0 20 20" height="1em" width="1em">
  <path fill="#555" d="M10 0c5.523 0 10 4.477 10 10s-4.477 10-10 10S0 15.523 0 10 4.477 0 10 0Zm0 13.636a.91.91 0 1 0 0 1.819.91.91 0 0 0 0-1.819Zm2.68-8.306c-.74-.745-1.843-1.083-2.768-.963-1.002.13-1.553.33-2.312.997C6.967 5.92 6.571 6.7 6.406 7.68a.682.682 0 1 0 1.345.227c.115-.686.367-1.183.75-1.519.522-.458.83-.57 1.587-.668.519-.068 1.196.14 1.625.572.407.409.52.814.455 1.285-.049.348-.294.784-.607 1.066-.111.096-.563.487-.678.59a8.904 8.904 0 0 0-.615.593 3.94 3.94 0 0 0-.82 1.38c-.113.316-.196.716-.254 1.209a.682.682 0 1 0 1.354.158c.047-.397.11-.701.183-.905.131-.364.3-.659.538-.915l.102-.11.06-.062c.131-.133.304-.283 1.003-.89.565-.49.988-1.234 1.084-1.925.122-.872-.112-1.706-.838-2.436Z"/>
</svg>
